X:1
T:Title
%%score ( 1 2 ) { ( 3 5 ) | 4 }
L:1/8
Q:1/4=103
M:6/8
K:Ab
V:1 treble nm="Grand Piano, Soprano"
V:2 treble 
V:3 bass nm="Choir Pad, The Light Is Come, Bonar"
V:5 bass 
V:4 bass 
V:1
 [CE]2 [CE] [_C=D]2 [=CE] | [CA]2 [DB] [Ec]3 | [DB]2 [DA] [DG]2 [DF] | [FA]2 [DF] [CE]3 | %4
w: By~Hugh~Henry~McGranahan,1894 * * *||||
 [CE]2 [CE] [DF]2 [CE] | [EA]2 [EB] [Ec]3 | [Ad]2 [Ac] [Fc]2 [FB] | [EA]2 [DG] [CA]2 c | e6 | c6 | %10
w: ||||||
 .[EA]3 .[Ec]3 | [Fd]3- [Fd]3/2 z/ [EG] | [EA]2 [EA] [EB]2 [GB] | [Ac]2 [Gd] [Ae][Ed][Ec] | %14
w: ||||
 [EB]3 [A=d]3 | [Ge]3- [Ge]3/2 z/ [Be] | [Ae]3- [Ae]2 [Ae] | [Ac]3- [Ac]3/2 z/ [Ac] | [Ad]3 [Ae]3 | %19
w: |||||
 [Af]3- [Af]3/2 z/ [AB] | [Ac]2 [Ac] [Gd]2 [Gd] | [Ae]2 [Ae] [Af][Ae][Fd] | [Ec]3 [EB]3 | [EA]6- | %24
w: |||||
 [EA]3 z3 |] %25
w: |
V:2
 x6 | x6 | x6 | x6 | x6 | x6 | x6 | x6 | z2 .A A2 d | z2 .A A2 [EB] | x6 | x6 | x6 | x6 | x6 | x6 | %16
 x6 | x6 | x6 | x6 | x6 | x6 | x6 | x6 | x6 |] %25
V:3
 A,2 A, A,2 A, | E,2 E, A,3 | F,2 F, B,2 A, | A,2 A, A,3 | A,2 A, A,2 A, | A,2 G, A,3 | %6
 A,2 A, A,2 D | C2 B, A,2 A, | C6 | z2 .F, F,2 D | C3 A,3 | A,3- A,3/2 z/ B, | A,2 A, G,2 B, | %13
 A,2[K:treble] E EEE | E3 B,3 | B,3- B,3/2 z/ D | C3- C2 C | E3- E3/2 z/ E | D3 C3 | %19
 D3- D3/2 z/ F | E2 E E2 D | C2 C DA,A, | A,3 D3 | C6- | C3 z3 |] %25
V:4
 A,,2 A,, A,,2 A,, | A,,2 A,, A,,3 | D,2 D, D,2 D, | D,2 D, A,,3 | A,,2 A,, A,,2 A,, | C,2 E, z3 | %6
 F,2 F, F,2 D, | E,2 E, .A,,3 | z6 | z3 z2 G, | A,3 z3 | D,3- D,3/2 z/ D, | C,2 C, E,2 E, | %13
 z2 B, CB,A, | G,3 F,3 | E,3- E,3/2 z/ G, | A,3- A,2 A, | A,3- A,3/2 z/ _G, | F,3 E,3 | %19
 D,3- D,3/2 z/[K:treble] D | C2 C B,2 B, | A,2 A, D,D,D, | E,3 [E,G,]3 | [A,,A,]6- | [A,,A,]3 z3 |] %25
V:5
 x6 | x6 | x6 | x6 | x6 | x6 | x6 | x6 | z2 .A, A,2 B, | A,6 | x6 | x6 | x6 | x2[K:treble] x4 | %14
 x6 | x6 | x6 | x6 | x6 | x6 | x6 | x6 | x6 | x6 | x6 |] %25

